32x32/apps/gnome-mplayer.svg

<svg height="32" width="32" xmlns="http://www.w3.org/2000/svg"><path d="m4.3 4a2.296 2.296 0 0 0 -2.3 2.3v15.7h28v-15.7c0-1.274-1.027-2.3-2.301-2.3h-23.398z" fill="#4bae4f"/><path d="m4.3 28a2.291 2.291 0 0 1 -2.3-2.29v-3.71h28v3.71a2.291 2.291 0 0 1 -2.301 2.29z" fill="#ccc"/><rect fill="#999" height="2" ry="1" width="8" x="20" y="24"/><rect fill="#4bae4f" height="2" ry="1" width="16" x="4" y="24"/><circle cx="20" cy="26" opacity=".2" r="2"/><circle cx="20" cy="25" fill="#f4f4f7" r="2"/><path d="m2 22h28v1h-28z" fill="#f4f4f7" opacity=".2"/><path d="m12.433 9c-.239 0-.433.2-.433.445v9.11c0 .338.353.552.641.39l8.134-4.555a.45.45 0 0 0 0-.78l-7.321-4.1-.813-.455a.424.424 0 0 0 -.208-.054z" opacity=".2"/><path d="m12.433 8c-.239 0-.433.2-.433.445v9.11c0 .338.353.552.641.39l8.134-4.555a.45.45 0 0 0 0-.78l-7.321-4.1-.813-.455a.424.424 0 0 0 -.208-.054z" fill="#f4f4f7"/><path d="m2 25.699v1a2.297 2.297 0 0 0 2.3 2.301h23.4a2.297 2.297 0 0 0 2.3-2.301v-1a2.297 2.297 0 0 1 -2.3 2.301h-23.4a2.297 2.297 0 0 1 -2.3-2.301z" opacity=".2"/><path d="m4.3 4a2.296 2.296 0 0 0 -2.3 2.3v1c0-1.272 1.027-2.3 2.3-2.3h23.4c1.272 0 2.3 1.027 2.3 2.3v-1c0-1.272-1.027-2.3-2.3-2.3z" fill="#f4f4f7" opacity=".2"/></svg>

<svg height="32" width="32" xmlns="http://www.w3.org/2000/svg">
    <path d="M4.3 4A2.296 2.296 0 0 0 2 6.3V22h28V6.3C30 5.026 28.973 4 27.699 4H4.301z" fill="#4bae4f"/>
    <path d="M4.3 28A2.291 2.291 0 0 1 2 25.71V22h28v3.71A2.291 2.291 0 0 1 27.699 28z" fill="#ccc"/>
    <rect fill="#999" height="2" ry="1" width="8" x="20" y="24"/>
    <rect fill="#4bae4f" height="2" ry="1" width="16" x="4" y="24"/>
    <circle cx="20" cy="26" opacity=".2" r="2"/>
    <circle cx="20" cy="25" fill="#f4f4f7" r="2"/>
    <path d="M2 22h28v1H2z" fill="#f4f4f7" opacity=".2"/>
    <path d="M12.433 9a.44.44 0 0 0-.433.445v9.11c0 .338.353.552.641.39l8.134-4.555a.45.45 0 0 0 0-.78l-7.321-4.1-.813-.455a.424.424 0 0 0-.208-.054z" opacity=".2"/>
    <path d="M12.433 8a.44.44 0 0 0-.433.445v9.11c0 .338.353.552.641.39l8.134-4.555a.45.45 0 0 0 0-.78l-7.321-4.1-.813-.455a.424.424 0 0 0-.208-.054z" fill="#f4f4f7"/>
    <path d="M2 25.699v1A2.297 2.297 0 0 0 4.3 29h23.4a2.297 2.297 0 0 0 2.3-2.301v-1A2.297 2.297 0 0 1 27.7 28H4.3A2.297 2.297 0 0 1 2 25.699z" opacity=".2"/>
    <path d="M4.3 4A2.296 2.296 0 0 0 2 6.3v1C2 6.028 3.027 5 4.3 5h23.4C28.972 5 30 6.027 30 7.3v-1C30 5.028 28.973 4 27.7 4z" fill="#f4f4f7" opacity=".2"/>
</svg>
